icons/svg/icons8/baseball_cap.svg

<svg width="26" height="26" viewBox="0 0 26 26" fill="none" xmlns="http://www.w3.org/2000/svg">
<g clip-path="url(#clip0)">
<path d="M1.18213 17.725C1.18213 18.471 2.48913 21.911 3.54513 23.698C5.45013 26.915 6.47313 23.369 13.0001 23.369C19.5261 23.369 20.4191 26.915 22.4541 23.697C23.3261 22.318 24.8181 18.447 24.8181 17.724" stroke="#333333" stroke-width="2.3424" stroke-miterlimit="10" stroke-linecap="round" stroke-linejoin="round"/>
<path d="M13.0002 2.949C14.3053 2.949 15.3632 2.29936 15.3632 1.498C15.3632 0.696632 14.3053 0.0469971 13.0002 0.0469971C11.6952 0.0469971 10.6372 0.696632 10.6372 1.498C10.6372 2.29936 11.6952 2.949 13.0002 2.949Z" fill="#333333"/>
<path d="M13.026 1.10001C5.86 1.10001 0.053 4.49501 0.053 11.547C0.053 12.341 0 16.932 0 17.725C0 18.981 5.808 14.789 12.974 14.789C20.14 14.789 25.948 18.924 25.948 17.725C25.948 16.932 26.001 12.342 26.001 11.547C26 4.49501 20.192 1.10001 13.026 1.10001ZM11.566 10.702C11.82 11.238 12.363 11.577 13.296 11.577C14.026 11.577 14.432 11.389 14.856 10.994C15.195 10.668 15.535 10.551 15.959 10.551C16.588 10.551 17.096 10.866 17.096 11.321C17.096 11.508 17.01 11.671 16.875 11.833C16.298 12.545 15.026 13.092 13.296 13.092C11.277 13.092 9.785 12.439 9.173 11.146C8.937 10.619 8.851 10.211 8.851 9.00001C8.851 7.78901 8.937 7.38001 9.174 6.85501C9.786 5.56301 11.278 4.91001 13.297 4.91001C15.027 4.91001 16.298 5.45701 16.876 6.16801C17.011 6.33101 17.097 6.49401 17.097 6.68001C17.097 7.13501 16.589 7.45001 15.96 7.45001C15.536 7.45001 15.196 7.33201 14.857 7.00601C14.433 6.61001 14.027 6.42301 13.297 6.42301C12.364 6.42301 11.821 6.76101 11.567 7.29801C11.432 7.58901 11.379 7.87001 11.379 9.00001C11.379 10.13 11.432 10.41 11.566 10.702Z" fill="#333333"/>
</g>
<defs>
<clipPath id="clip0">
<rect width="26" height="26" fill="white"/>
</clipPath>
</defs>
</svg>

<?xml version="1.0" encoding="utf-8"?>
<!-- Generator: Adobe Illustrator 15.0.0, SVG Export Plug-In . SVG Version: 6.00 Build 0)  -->
<!DOCTYPE svg PUBLIC "-//W3C//DTD SVG 1.1//EN" "http://www.w3.org/Graphics/SVG/1.1/DTD/svg11.dtd">
<svg version="1.1" id="Layer_1" xmlns="http://www.w3.org/2000/svg" xmlns:xlink="http://www.w3.org/1999/xlink" x="0px" y="0px"
	 width="26px" height="26px" viewBox="0 0 26 26" enable-background="new 0 0 26 26" xml:space="preserve">
<rect fill="none" width="26" height="26"/>
<path fill="none" stroke="#333333" stroke-width="2.3424" stroke-linecap="round" stroke-linejoin="round" stroke-miterlimit="10" d="
	M1.182,17.725c0,0.746,1.307,4.186,2.363,5.973C5.45,26.915,6.473,23.369,13,23.369c6.526,0,7.419,3.546,9.454,0.328
	c0.872-1.379,2.364-5.25,2.364-5.973"/>
<ellipse fill="#333333" cx="13" cy="1.498" rx="2.363" ry="1.451"/>
<path fill="#333333" d="M13.026,1.1C5.86,1.1,0.053,4.495,0.053,11.547C0.053,12.341,0,16.932,0,17.725
	c0,1.256,5.808-2.936,12.974-2.936s12.974,4.135,12.974,2.936c0-0.793,0.053-5.383,0.053-6.178C26,4.495,20.192,1.1,13.026,1.1z
	 M11.566,10.702c0.254,0.536,0.797,0.875,1.73,0.875c0.73,0,1.136-0.188,1.56-0.583c0.339-0.326,0.679-0.443,1.103-0.443
	c0.629,0,1.137,0.315,1.137,0.77c0,0.187-0.086,0.35-0.221,0.512c-0.577,0.712-1.849,1.259-3.579,1.259
	c-2.019,0-3.511-0.653-4.123-1.946C8.937,10.619,8.851,10.211,8.851,9S8.937,7.38,9.174,6.855c0.612-1.292,2.104-1.945,4.123-1.945
	c1.73,0,3.001,0.547,3.579,1.258c0.135,0.163,0.221,0.326,0.221,0.512c0,0.455-0.508,0.77-1.137,0.77
	c-0.424,0-0.764-0.118-1.103-0.444c-0.424-0.396-0.83-0.583-1.56-0.583c-0.933,0-1.476,0.338-1.73,0.875
	C11.432,7.589,11.379,7.87,11.379,9S11.432,10.41,11.566,10.702z"/>
</svg>
